picto/cctv.svg

<svg class="color-immutable" width="24" height="24" viewBox="0 0 24 24" fill="none" xmlns="http://www.w3.org/2000/svg"><path d="M0 22.5V1.5C0 0.675 0.675 0 1.5 0H22.5C23.325 0 24 0.675 24 1.5V22.5C24 23.325 23.325 24 22.5 24H1.5C0.675 24 0 23.325 0 22.5Z" fill="#2D327D"/><path d="M20.562 10.089L7.40396 14.879C7.15896 14.968 6.89396 14.956 6.65796 14.846C6.65796 14.846 6.02196 14.55 5.30096 14.214L5.93996 15.97C6.05296 16.28 6.39896 16.441 6.70896 16.328L20.382 11.351C20.692 11.238 20.854 10.892 20.741 10.582L20.562 10.089Z" fill="white"/><path d="M2.94897 12.112L3.12297 12.59C3.17497 12.734 3.28297 12.859 3.43297 12.929L6.81597 14.506C6.95497 14.571 7.11897 14.583 7.27497 14.526L20.573 9.685C20.883 9.572 21.045 9.226 20.932 8.916L19.855 5.957L2.94897 12.112Z" fill="white"/><path d="M14.928 16.125H15.584L14.731 13.782L12.616 14.551L13.534 17.074C13.754 16.519 14.295 16.125 14.928 16.125Z" fill="white"/><path d="M14.928 16.5C14.307 16.5 13.803 17.004 13.803 17.625C13.803 18.246 14.307 18.75 14.928 18.75H21V16.5H14.928ZM14.928 18.372C14.514 18.372 14.178 18.036 14.178 17.622C14.178 17.208 14.514 16.872 14.928 16.872C15.342 16.872 15.678 17.208 15.678 17.622C15.678 18.036 15.342 18.372 14.928 18.372Z" fill="white"/><path d="M5.08796 3L4.34096 5.249H3.78296L3.04596 3H3.55996L4.06596 4.684L4.57896 3H5.08796Z" fill="white"/><path d="M5.72395 3V3.401H5.27795V3H5.72395ZM5.72395 3.572V5.249H5.27795V3.572H5.72395Z" fill="white"/><path d="M7.66493 3V5.249H7.23893V5.029C7.13993 5.206 6.97693 5.295 6.74793 5.295C6.51993 5.295 6.33893 5.211 6.20493 5.044C6.07393 4.881 6.00793 4.666 6.00793 4.4C6.00793 4.149 6.06593 3.945 6.18193 3.789C6.31493 3.609 6.49593 3.518 6.72293 3.518C6.94593 3.518 7.11093 3.604 7.21993 3.775V3H7.66493ZM6.83893 3.884C6.72393 3.884 6.63193 3.927 6.56393 4.013C6.49293 4.103 6.45793 4.23 6.45793 4.394C6.45793 4.554 6.49293 4.681 6.56293 4.775C6.62993 4.865 6.72393 4.91 6.84793 4.91C6.97193 4.91 7.06593 4.865 7.13393 4.776C7.19993 4.689 7.23393 4.563 7.23393 4.401C7.23393 4.232 7.19793 4.103 7.12593 4.013C7.05593 3.927 6.95993 3.884 6.83893 3.884Z" fill="white"/><path d="M9.51996 4.726C9.49596 4.82 9.45296 4.909 9.39196 4.992C9.24396 5.194 9.03196 5.295 8.75496 5.295C8.50496 5.295 8.30396 5.216 8.15396 5.058C8.07996 4.981 8.02396 4.888 7.98496 4.78C7.94296 4.664 7.92096 4.543 7.92096 4.417C7.92096 4.173 7.99096 3.968 8.13196 3.802C8.28896 3.616 8.49196 3.524 8.74096 3.524C8.94196 3.524 9.11296 3.586 9.25496 3.71C9.35696 3.799 9.42996 3.909 9.47596 4.04C9.52196 4.171 9.54496 4.335 9.54496 4.533H8.37496C8.37896 4.615 8.39196 4.683 8.41296 4.738C8.47296 4.885 8.58796 4.958 8.75796 4.958C8.84096 4.958 8.90896 4.94 8.96096 4.903C9.01396 4.865 9.05696 4.807 9.08996 4.726H9.51996ZM9.08996 4.232C9.08196 4.151 9.06396 4.084 9.03496 4.031C9.00596 3.978 8.96596 3.937 8.91296 3.906C8.85996 3.875 8.80196 3.86 8.73996 3.86C8.64096 3.86 8.55896 3.893 8.49396 3.96C8.42896 4.026 8.39096 4.117 8.37796 4.232H9.08996Z" fill="white"/><path d="M10.6179 3.52299C10.8619 3.52299 11.0609 3.604 11.2159 3.766C11.3689 3.926 11.4449 4.139 11.4449 4.406C11.4449 4.682 11.3629 4.90199 11.1999 5.06599C11.0469 5.21899 10.8479 5.295 10.6029 5.295C10.3419 5.295 10.1329 5.20999 9.97893 5.03999C9.83193 4.87699 9.75793 4.66699 9.75793 4.40899C9.75793 4.15499 9.82993 3.948 9.97293 3.789C10.1319 3.612 10.3469 3.52299 10.6179 3.52299ZM10.5949 3.871C10.4769 3.871 10.3829 3.91899 10.3139 4.01399C10.2429 4.10999 10.2079 4.24199 10.2079 4.40899C10.2079 4.58199 10.2429 4.715 10.3129 4.807C10.3849 4.9 10.4829 4.947 10.6069 4.947C10.7229 4.947 10.8149 4.90399 10.8819 4.81899C10.9589 4.72499 10.9969 4.588 10.9969 4.40799C10.9969 4.24 10.9629 4.10899 10.8949 4.01599C10.8239 3.91899 10.7239 3.871 10.5949 3.871Z" fill="white"/></svg>

<svg class="color-immutable" width="24" height="24" viewBox="0 0 24 24" fill="none" xmlns="http://www.w3.org/2000/svg"><g clip-path="url(#a)"><path d="M0 22.5v-21C0 .675.675 0 1.5 0h21c.825 0 1.5.675 1.5 1.5v21c0 .825-.675 1.5-1.5 1.5h-21C.675 24 0 23.325 0 22.5Z" fill="#2D327D"/><path d="m20.562 10.089-13.158 4.79a.97.97 0 0 1-.746-.033l-1.357-.632.639 1.756c.113.31.459.471.769.358l13.673-4.977a.602.602 0 0 0 .359-.769l-.179-.493Z" fill="#fff"/><path d="m2.949 12.112.174.478c.052.144.16.269.31.339l3.383 1.577a.597.597 0 0 0 .459.02l13.298-4.841a.602.602 0 0 0 .359-.769l-1.077-2.959-16.906 6.155ZM14.928 16.125h.656l-.853-2.343-2.115.769.918 2.523a1.5 1.5 0 0 1 1.394-.949Z" fill="#fff"/><path d="M14.928 16.5a1.125 1.125 0 0 0 0 2.25H21V16.5h-6.072Zm0 1.872a.75.75 0 1 1 0-1.5.75.75 0 0 1 0 1.5ZM5.088 3l-.747 2.249h-.558L3.046 3h.514l.506 1.684L4.579 3h.509ZM5.724 3v.401h-.446V3h.446Zm0 .572v1.677h-.446V3.572h.446ZM7.665 3v2.249h-.426v-.22c-.1.177-.262.266-.491.266a.66.66 0 0 1-.543-.251c-.131-.163-.197-.378-.197-.644 0-.251.058-.455.174-.611a.64.64 0 0 1 .54-.271c.224 0 .389.086.498.257V3h.445Zm-.826.884a.333.333 0 0 0-.275.129c-.071.09-.106.217-.106.381 0 .16.035.287.105.381.067.09.16.135.285.135a.338.338 0 0 0 .286-.134c.066-.087.1-.213.1-.375 0-.169-.036-.298-.108-.388a.35.35 0 0 0-.287-.129ZM9.52 4.726a.77.77 0 0 1-.128.266c-.148.202-.36.303-.637.303-.25 0-.451-.079-.601-.237a.775.775 0 0 1-.169-.278 1.059 1.059 0 0 1-.064-.363c0-.244.07-.449.211-.615a.76.76 0 0 1 .609-.278.754.754 0 0 1 .735.516c.046.131.069.295.069.493h-1.17c.004.082.017.15.038.205.06.147.175.22.345.22a.343.343 0 0 0 .203-.055.39.39 0 0 0 .129-.177h.43Zm-.43-.494a.526.526 0 0 0-.055-.201.337.337 0 0 0-.295-.171.328.328 0 0 0-.246.1.446.446 0 0 0-.116.272h.712ZM10.618 3.523a.79.79 0 0 1 .598.243c.153.16.229.373.229.64 0 .276-.082.496-.245.66a.807.807 0 0 1-.597.229c-.261 0-.47-.085-.624-.255-.147-.163-.221-.373-.221-.631 0-.254.072-.461.215-.62.159-.177.374-.266.645-.266Zm-.023.348a.33.33 0 0 0-.281.143.652.652 0 0 0-.106.395c0 .173.035.306.105.398.072.093.17.14.294.14a.332.332 0 0 0 .275-.128c.077-.094.115-.231.115-.411 0-.168-.034-.299-.102-.392a.35.35 0 0 0-.3-.145Z" fill="#fff"/></g><defs><clipPath id="a"><path fill="#fff" d="M0 0h24v24H0z"/></clipPath></defs></svg>
